X: 4315
T: Bog Man, The
R: reel
M: 4/4
K: Bminor
|:"Em"g2 ef "G"gbag|"Bm"f2 df "Em"edBA|"Em"G2EF GA (3.B.=c.c|"G"dB(3.B.B.B "Em"dBAB|
"Em"[g3B3]f gbag|"D"[f2A2]"Bm"df "Em"edBA|"Em"G2EF GABc|"Bm"dBAF "Em"FEEB:|
|:"Em"Be(3eee ceBe|"Bm"fbba "A"fece|"D"fddd "G"BdAB|"D"Ad{e}dc "G"dBAd|
"Em"Be(3eee ceBe|"Bm"fbba "A" fece|"Em"~b3 a "Bm"fedc|dBAF "Em"FEE2:|

